X:17955
T:U4 Schottisch 
C:nach Hermann Fritz
Z:abc transcription Simon Wascher
N:please mail errors to: simon.wascher@chello.at
M:2/4
L:1/16
K:G
DDD2 AAA2|d2d2B4|AAAA A2G2|FFFF F2E2|
DDD2 AAA2|d2d2B4|AAAA AFGE|D2F2D4:|
|:EEEE FEE2|GGGG AGG2|FEED DGGF|E2EE FEE2|
EEEE FEE2|GGGG AGG2|FEED DGGF|E3E FEE2:|
